X: 24824
T: Maggie Pickins
R: strathspey
M: 4/4
K: Gmajor
GEDE GA B2|GABG AGE2|GEDE GAB2|GABG A2G2|
GEDE GAB2|cABG AGE2|GEDE GAB2|GABG A2G2||
g3f efg2|GABG AGE2|g3f efg2|GABG A2G2|
g3f efg2|cABG AGE2|bgaf gedB|cABG A2G2||

